img/webmon_icon_simple.svg

<svg width="26" height="24" viewBox="0 0 26 24" fill="none" xmlns="http://www.w3.org/2000/svg">
<path d="M8.83946 16.6572C8.83946 15.9372 8.61816 15.3443 8.17558 14.8784C7.73299 14.4041 6.99534 13.9805 5.96264 13.6078C4.92993 13.2267 4.12672 12.8751 3.55299 12.5533C1.64331 11.4945 0.68847 9.92742 0.68847 7.85215C0.68847 6.44604 1.10237 5.28982 1.93017 4.38348C2.75798 3.47714 3.63496 2.96467 5.05287 2.79526V0H7.26581V2.79526C8.69193 3.00702 9.7943 3.63384 10.5729 4.67571C11.3516 5.70911 11.7409 7.05592 11.7409 8.71614H8.76569C8.76569 7.64885 8.5321 6.81028 8.06493 6.2004C7.60595 5.58205 6.97895 5.27288 6.18393 5.27288C5.39711 5.27288 4.7824 5.49311 4.33982 5.93358C3.89723 6.37404 3.67594 7.0051 3.67594 7.82673C3.67594 8.56367 3.89313 9.1566 4.32752 9.60554C4.77011 10.046 5.51595 10.4653 6.56505 10.8634C7.61415 11.2615 8.43785 11.63 9.03616 11.9688C9.63448 12.3076 10.1385 12.6973 10.5483 13.1377C10.9581 13.5697 11.2737 14.0695 11.495 14.637C11.7163 15.2045 11.8269 15.8695 11.8269 16.6318C11.8269 18.0633 11.4007 19.2238 10.5483 20.1132C9.70414 21.0026 8.67963 21.5405 7.16336 21.7014V23.6538H5.05287V21.7014C3.43005 21.515 2.18015 20.9136 1.30317 19.8972C0.434391 18.8807 0 17.5339 0 15.8568H2.98747C2.98747 16.924 3.24564 17.7499 3.76199 18.3344C4.28654 18.9188 5.02419 19.2111 5.97493 19.2111C6.90928 19.2111 7.61824 18.9781 8.10181 18.5123C8.59358 18.0464 8.83946 17.428 8.83946 16.6572Z" fill="#6ADAAB"/>
<rect x="15.7693" y="9.85577" width="1.97115" height="5.91346" fill="#6ADAAB"/>
<rect x="19.7114" y="7.88458" width="1.97115" height="9.85577" fill="#6ADAAB"/>
<rect x="23.6538" y="5.91345" width="1.97115" height="13.7981" fill="#6ADAAB"/>
</svg>

<svg width="26" height="24" viewBox="0 0 26 24" fill="none" xmlns="http://www.w3.org/2000/svg"><path d="M8.84 16.657c0-.72-.222-1.313-.664-1.779-.443-.474-1.18-.898-2.213-1.27-1.033-.381-1.836-.733-2.41-1.055-1.91-1.059-2.865-2.626-2.865-4.7 0-1.407.414-2.563 1.242-3.47.828-.906 1.705-1.418 3.123-1.588V0h2.213v2.795c1.426.212 2.528.839 3.307 1.88.779 1.034 1.168 2.38 1.168 4.041H8.766c0-1.067-.234-1.906-.701-2.516-.459-.618-1.086-.927-1.881-.927-.787 0-1.402.22-1.844.66-.443.441-.664 1.072-.664 1.894 0 .737.217 1.33.652 1.779.442.44 1.188.86 2.237 1.257 1.05.399 1.873.767 2.471 1.106a6.252 6.252 0 011.512 1.169c.41.432.726.931.947 1.499.221.567.332 1.232.332 1.995 0 1.431-.426 2.592-1.279 3.481-.844.89-1.868 1.428-3.385 1.588v1.953h-2.11V21.7c-1.623-.186-2.873-.787-3.75-1.804C.434 18.881 0 17.534 0 15.857h2.987c0 1.067.259 1.893.775 2.477.525.585 1.262.877 2.213.877.934 0 1.643-.233 2.127-.699.492-.466.737-1.084.737-1.855zm6.929-6.801h1.971v5.913h-1.971zm3.942-1.971h1.971v9.856h-1.971zm3.943-1.972h1.971v13.798h-1.971z" fill="#6ADAAB"/></svg>
